front/public/static/landing/logos/gray/patch.svg

<svg fill="none" height="263" viewBox="0 0 600 263" width="600" xmlns="http://www.w3.org/2000/svg" xmlns:xlink="http://www.w3.org/1999/xlink"><mask id="a" height="261" maskUnits="userSpaceOnUse" width="520" x="40" y="1"><path d="m560.001 1.25253h-520.001v260.49547h520.001z" fill="#fff"/></mask><mask id="b" height="261" maskUnits="userSpaceOnUse" width="520" x="40" y="1"><path d="m560.001 1.25253h-520.001v260.49547h520.001z" fill="#fff"/></mask><g mask="url(#a)"><g fill="#364153" mask="url(#b)"><path clip-rule="evenodd" d="m169.716 94.2404c-20.129 0-36.45 16.6826-36.45 37.2596 0 20.576 16.32 37.26 36.45 37.26s36.45-16.684 36.45-37.26c0-20.577-16.32-37.2596-36.45-37.2596zm13.865 60.5456c1.975-3.897 5.106-7.094 8.914-9.113 5.012-2.654 8.435-8.004 8.435-14.172s-3.423-11.519-8.435-14.173c-3.807-2.019-6.939-5.22-8.914-9.112-2.597-5.123-7.831-8.6217-13.864-8.6217-6.034 0-11.268 3.4987-13.865 8.6217-1.975 3.893-5.107 7.094-8.915 9.112-5.012 2.655-8.434 8.005-8.434 14.173 0 6.167 3.422 11.517 8.434 14.172 3.812 2.019 6.94 5.22 8.915 9.113 2.597 5.123 7.83 8.621 13.865 8.621 6.033 0 11.267-3.498 13.864-8.621z" fill-rule="evenodd"/><path clip-rule="evenodd" d="m230.348 98.0509h25.862c13.533 0 22.621 8.2541 22.621 20.1301s-9.094 20.237-22.627 20.237h-17.978v26.523h-7.878zm7.883 32.9371h19.189c9.396 0 13.033-3.718 13.033-12.802 0-9.083-3.642-12.598-13.033-12.598h-19.189z" fill-rule="evenodd"/><path d="m368.159 123.64v-7.228h-13.467v-18.2732h-7.779v18.2732h-11.878v7.228h11.878v29.427c0 7.126 4.648 11.876 11.618 11.876h9.595v-7.227h-13.434v-34.077z"/><path clip-rule="evenodd" d="m321.462 116.416v7.761c-3.672-5.594-9.438-8.794-16.729-8.794-.215 0-.429.003-.641.006-.202-.006-.404-.006-.608-.006-13.638 0-22.726 10.122-22.726 25.292 0 15.172 9.094 25.293 22.726 25.293.204 0 .406-.003.608-.006.106.002.211.002.317.006.108.001.215.002.324.002 7.29 0 13.057-3.2 16.729-8.793v7.761h7.779v-48.52zm-16.163 42.33c-11.311 0-16.565-5.783-16.565-18.065 0-12.283 5.253-18.066 16.565-18.066 11.31 0 16.564 5.783 16.564 18.066 0 12.282-5.248 18.065-16.564 18.065z" fill-rule="evenodd"/><path d="m380.462 140.676c0 12.386 5.257 18.167 16.466 18.167 7.234 0 11.614-2.459 13.973-9.969l7.976 1.332c-3.529 10.59-11.513 15.768-21.851 15.768-14.543 0-24.546-10.116-24.546-25.292 0-15.177 9.996-25.293 24.546-25.293 10.29 0 18.24 5.123 21.791 15.601l-8.036 1.145c-2.389-7.239-6.735-9.625-13.86-9.625-11.202 0-16.455 5.781-16.459 18.166z"/><path d="m443.902 115.79c.124-.028.248-.056.375-.084v.006c3.821-.836 7.774-.641 11.156.447 7.32 2.109 11.295 8.432 11.295 18.216v30.562h-7.781v-30.043c0-7.955-4.642-12.288-11.711-12.288-9.293 0-15.15 7.329-15.15 19.927v22.404h-7.781v-66.8895h7.781v27.4055c2.179-4.915 5.857-8.498 11.816-9.663z"/></g></g></svg>

<svg width="600" height="263" viewBox="0 0 600 263" fill="none" xmlns="http://www.w3.org/2000/svg">
<mask id="mask0_1904_3625" style="mask-type:luminance" maskUnits="userSpaceOnUse" x="40" y="1" width="520" height="261">
<path d="M560.001 1.25253H40V261.748H560.001V1.25253Z" fill="white"/>
</mask>
<g mask="url(#mask0_1904_3625)">
<mask id="mask1_1904_3625" style="mask-type:luminance" maskUnits="userSpaceOnUse" x="40" y="1" width="520" height="261">
<path d="M560.001 1.25253H40V261.748H560.001V1.25253Z" fill="white"/>
</mask>
<g mask="url(#mask1_1904_3625)">
<path fill-rule="evenodd" clip-rule="evenodd" d="M169.716 94.2404C149.587 94.2404 133.266 110.923 133.266 131.5C133.266 152.076 149.586 168.76 169.716 168.76C189.846 168.76 206.166 152.076 206.166 131.5C206.166 110.923 189.846 94.2404 169.716 94.2404ZM183.581 154.786C185.556 150.889 188.687 147.692 192.495 145.673C197.507 143.019 200.93 137.669 200.93 131.501C200.93 125.333 197.507 119.982 192.495 117.328C188.688 115.309 185.556 112.108 183.581 108.216C180.984 103.093 175.75 99.5943 169.717 99.5943C163.683 99.5943 158.449 103.093 155.852 108.216C153.877 112.109 150.745 115.31 146.937 117.328C141.925 119.983 138.503 125.333 138.503 131.501C138.503 137.668 141.925 143.018 146.937 145.673C150.749 147.692 153.877 150.893 155.852 154.786C158.449 159.909 163.682 163.407 169.717 163.407C175.75 163.407 180.984 159.909 183.581 154.786Z" fill="#364153"/>
<path fill-rule="evenodd" clip-rule="evenodd" d="M230.348 98.0509H256.21C269.743 98.0509 278.831 106.305 278.831 118.181C278.831 130.057 269.737 138.418 256.204 138.418H238.226V164.941H230.348V98.0509ZM238.231 130.988H257.42C266.816 130.988 270.453 127.27 270.453 118.186C270.453 109.103 266.811 105.588 257.42 105.588H238.231V130.988Z" fill="#364153"/>
<path d="M368.159 123.64V116.412H354.692V98.1388H346.913V116.412H335.035V123.64H346.913V153.067C346.913 160.193 351.561 164.943 358.531 164.943H368.126V157.716H354.692V123.639L368.159 123.64Z" fill="#364153"/>
<path fill-rule="evenodd" clip-rule="evenodd" d="M321.462 116.416V124.177C317.79 118.583 312.024 115.383 304.733 115.383C304.518 115.383 304.304 115.386 304.092 115.389C303.89 115.383 303.688 115.383 303.484 115.383C289.846 115.383 280.758 125.505 280.758 140.675C280.758 155.847 289.852 165.968 303.484 165.968C303.688 165.968 303.89 165.965 304.092 165.962C304.198 165.964 304.303 165.964 304.409 165.968C304.517 165.969 304.624 165.97 304.733 165.97C312.023 165.97 317.79 162.77 321.462 157.177V164.938H329.241V116.418L321.462 116.416ZM305.299 158.746C293.988 158.746 288.734 152.963 288.734 140.681C288.734 128.398 293.987 122.615 305.299 122.615C316.609 122.615 321.863 128.398 321.863 140.681C321.863 152.963 316.615 158.746 305.299 158.746Z" fill="#364153"/>
<path d="M380.462 140.676C380.462 153.062 385.719 158.843 396.928 158.843C404.162 158.843 408.542 156.384 410.901 148.874L418.877 150.206C415.348 160.796 407.364 165.974 397.026 165.974C382.483 165.974 372.48 155.858 372.48 140.682C372.48 125.505 382.476 115.389 397.026 115.389C407.316 115.389 415.266 120.512 418.817 130.99L410.781 132.135C408.392 124.896 404.046 122.51 396.921 122.51C385.719 122.51 380.466 128.291 380.462 140.676Z" fill="#364153"/>
<path d="M443.902 115.79C444.026 115.762 444.15 115.734 444.277 115.706V115.712C448.098 114.876 452.051 115.071 455.433 116.159C462.753 118.268 466.728 124.591 466.728 134.375V164.937H458.947V134.894C458.947 126.939 454.305 122.606 447.236 122.606C437.943 122.606 432.086 129.935 432.086 142.533V164.937H424.305V98.0475H432.086V125.453C434.265 120.538 437.943 116.955 443.902 115.79Z" fill="#364153"/>
</g>
</g>
</svg>
